X:1
T: The Humors of Newcastle
C:
R:Reel
Q: 232
K:D
M:4/4
L:1/8
|:DF EF D2 dB|A2 FD EA, A,2|DF DF D2 dB|AF EG FD D2|
DF EF D2 dB|A2 FD EA, A,2|DF DF D2 dB|AF EG FD D2|
d2 fd ad fd|A2 ((3cBA) eA ((3cBA)|d2 fd ad fd|((3fga) eg fB B2|
d2 fd ad fd|A2 ((3cBA) eA ((3cBA)|df eg ((3fga) ec|dB AG FD D2:|
